packages/symbols/svgs/solid/file-xmark-solid.svg

<svg width="16" height="16" viewBox="0 0 16 16" fill="none" xmlns="http://www.w3.org/2000/svg">
<path fill-rule="evenodd" clip-rule="evenodd" d="M9 6H15V15C15 15.6 14.6 16 14 16H2C1.4 16 1 15.6 1 15V1C1 0.4 1.4 0 2 0L9 0V6ZM11 0V4H15L11 0ZM10.0859 9.90879L8.88281 11.125L10.1076 12.3191C10.3517 12.5572 10.3517 12.9427 10.1076 13.1809C9.8632 13.419 9.46797 13.4188 9.2237 13.1809L8 11.9857L6.77526 13.1799C6.53091 13.418 6.13568 13.4178 5.89141 13.1799C5.64727 12.9418 5.64727 12.5563 5.89141 12.3181L7.11719 11.125L5.89062 9.90879C5.64648 9.67075 5.64648 9.28519 5.89062 9.04703C6.13477 8.80887 6.53021 8.80899 6.77448 9.04703L8 10.2643L9.22474 9.07014C9.46888 8.8321 9.86432 8.8321 10.1086 9.07014C10.3529 9.30817 10.3516 9.69297 10.0859 9.90879Z" fill="black"/>
</svg>

<svg width="16" height="16" viewBox="0 0 16 16" xmlns="http://www.w3.org/2000/svg"><path fill-rule="evenodd" clip-rule="evenodd" d="M9 6h6v9c0 .6-.4 1-1 1H2c-.6 0-1-.4-1-1V1c0-.6.4-1 1-1h7v6Zm2-6v4h4l-4-4Zm-.914 9.909-1.203 1.216 1.225 1.194a.599.599 0 0 1 0 .862.636.636 0 0 1-.884 0L8 11.986 6.775 13.18a.636.636 0 0 1-.884 0 .599.599 0 0 1 0-.862l1.226-1.193-1.226-1.216a.599.599 0 0 1 0-.862.636.636 0 0 1 .883 0L8 10.264 9.225 9.07a.636.636 0 0 1 .884 0c.244.238.243.623-.023.839Z"/></svg>
